X:1
T:Title
%%score 1 { 2 | 3 }
L:1/8
Q:1/4=107
M:4/4
K:D
V:1 treble nm="Grand Piano, Soprano"
V:2 bass nm="Choir Pad, Bass"
V:3 bass 
V:1
 D2 D2- D/ z/ [DE] [DF]2 | [DA]2 [DB]2 [DA]2 [Dd]2 | [DB]2 [DA]2- [DA][DB] [DA]2 | %3
w: By~Henry~L.~Frisbie * * * *|||
 [DF]2 [DF]2 [CE]4 | [CF]2 D2- D/ z/ [DE] [DF]2 | [DA]2 [DB]2 [DA]2 [Dd]2 | %6
w: |||
 [DB]2 [DA]2- [DA][DB] [DA]2 | [DF]2 [CE]2 D4 | [DA]2 [DF]2 [FA]2 [GB]2 | [FA]2 [FA]2 [Fd]4 | %10
w: ||||
 [FA]2 [DF]2 [FA]2 [GB]2 | [FA]2 [FA]2 [Fd]4 | [Fd]2 [FA]2 [Fd]2 [Ge]2 | [Fd]2 [GB]2 [Gd]2 [Gc]2 | %14
w: ||||
 [GB]2 [FA]2- [FA][GB] [FA]2 | [DF]2 [CE]2 D4 | [DF]2 [FA]2- [FA][FA] [FA]2 | %17
w: |||
 F2 [GB]2- [GB][GB] [GB]2 | [FA]2 [FA]2- [FA][FA] [FA]2 | [DF]2 [DF]2 [CE]4 | %20
w: |||
 [CF]2 D2- D/ z/ [DE] [DF]2 | [DA]2 [DB]2 [DA]2 [Dd]2 | [Gc]>[GB] [FA]2- [FA][GB] [FA]2 | %23
w: |||
 [DF]2 [CE]2 D4- | D4 z4 |] %25
w: ||
V:2
 F,2 F,2- F,G, A,2 | F,2 G,2 F,2 B,2 | G,2 A,2- A,G, A,2 | A,2 A,2 A,4 | A,2 F,2- F,G, A,2 | %5
 F,2 G,2 F,2 B,2 | G,2 A,2- A,G, A,2 | A,2 G,2 F,4 | F,2 A,2[K:treble] D2 D2 | D2 D2 A,4 | %10
 A,2 A,2 D2 D2 | D2 D2[K:bass] A,4 | A,2 A,2 A,2 A,2 | A,2 G,2 B,2[K:treble] D2 | D2 D2- DD D2 | %15
 A,2 G,2 F,4 | A,2 D2- D[K:treble]D D2 | D2 D2- DD D2 | D2 D2- DD D2 | A,2 A,2 A,4 | %20
 A,2 F,2- F,G, A,2 | F,2 G,2 F,2 B,2 | D>D D2- DD[K:bass] D2 | A,2 G,2 F,4- | F,4 z4 |] %25
V:3
 D,2 D,2- D,D, D,2 | D,2 D,2 D,2 D,2 | z2 F,4 F,2 | D,2 A,,2 A,,4 | A,,2 D,2- D,D, D,2 | %5
 D,2 D,2 D,2 D,2 | z2 F,4 F,2 | D,2 A,,2 D,4 | D,2 D,2 D,2 D,2 | D,2 D,2 D,4 | D,2 D,2 D,2 D,2 | %11
 D,2 D,2 D,4 | D,2 D,2 D,2 D,2 | D,2 z2 G,2 G,2 | G,2 A,2- A,A, A,2 | A,,2 A,,2 D,4 | %16
 D,2 D,2- D,D, D,2 | D,2 G,2- G,G, G,2 | D,2 D,2- D,D, D,2 | F,2 z2 z4 | A,,2 D,2- D,D, D,2 | %21
 D,2 D,2 D,2 G,,2 | G,,>G,, A,,2- A,,A,, A,,2 | A,,2 A,,2 D,4- | D,4 z4 |] %25

